sprites/streets-v8/_svg/restaurant-15.svg

<?xml version="1.0" encoding="UTF-8" standalone="no"?>
<svg
   xmlns:dc="http://purl.org/dc/elements/1.1/"
   xmlns:cc="http://creativecommons.org/ns#"
   xmlns:rdf="http://www.w3.org/1999/02/22-rdf-syntax-ns#"
   xmlns:svg="http://www.w3.org/2000/svg"
   xmlns="http://www.w3.org/2000/svg"
   id="svg2"
   width="23"
   height="23"
   viewBox="0 0 23 23"
   version="1.1">
  <metadata
     id="metadata14">
    <rdf:RDF>
      <cc:Work
         rdf:about="">
        <dc:format>image/svg+xml</dc:format>
        <dc:type
           rdf:resource="http://purl.org/dc/dcmitype/StillImage" />
      </cc:Work>
    </rdf:RDF>
  </metadata>
  <defs
     id="defs12" />
  <ellipse
     id="ellipse4"
     ry="11.5"
     rx="11.5"
     cy="11.5"
     cx="11.5"
     style="fill:#ffffff;stroke:none;" />
  <ellipse
     id="ellipse6"
     ry="10.5"
     rx="10.5"
     cy="11.5"
     cx="11.5"
     style="fill:#ab9483;stroke:none;" />
  <g
     id="g8"
     transform="translate(4,4)">
    <metadata     id="metadata8"><rdf:RDF><cc:Work         rdf:about=""><dc:format>image/svg+xml</dc:format><dc:type           rdf:resource="http://purl.org/dc/dcmitype/StillImage" /><dc:title /></cc:Work></rdf:RDF></metadata><defs     id="defs6" /><path     id="path11774"     d="M 3.5 0 L 2.5 5.5 C 2.3536392 6.3049845 4.2814996 6.6810094 4.25 7.5 L 4 14 C 3.961567 14.999261 5 15 5 15 C 5 15 6.0384331 14.999261 6 14 L 5.75 7.5 C 5.7185547 6.6824227 7.4834499 6.3192309 7.5 5.5 L 6.5 0 L 6 0 L 6.25 4 L 5.5 4.5 L 5.25 0 L 4.75 0 L 4.5 4.5 L 3.75 4 L 4 0 L 3.5 0 z M 12 0 C 11.263636 0 10.035831 0.65490052 9.5449219 1.6367188 C 9.135831 2.3730824 9 4.0181818 9 5 L 9 7.5 C 9 8.3181819 10.090908 8.5 10.5 8.5 L 10 14 C 9.909464 14.995893 11 15 11 15 C 11 15 12 15 12 14 L 12 0 z "     style="fill:#ffffff;fill-opacity:1" />
  </g>
</svg>

<?xml version="1.0" encoding="utf-8"?>
<!-- Generator: Adobe Illustrator 17.1.0, SVG Export Plug-In . SVG Version: 6.00 Build 0)  -->
<!DOCTYPE svg PUBLIC "-//W3C//DTD SVG 1.1//EN" "http://www.w3.org/Graphics/SVG/1.1/DTD/svg11.dtd">
<svg version="1.1"
	 id="svg2" xmlns:svg="http://www.w3.org/2000/svg" xmlns:cc="http://creativecommons.org/ns#" xmlns:dc="http://purl.org/dc/elements/1.1/" xmlns:rdf="http://www.w3.org/1999/02/22-rdf-syntax-ns#"
	 xmlns="http://www.w3.org/2000/svg" xmlns:xlink="http://www.w3.org/1999/xlink" x="0px" y="0px" width="23px" height="23px"
	 viewBox="0 0 23 23" enable-background="new 0 0 23 23" xml:space="preserve">
<ellipse id="ellipse4" fill="#FFFFFF" cx="11.5" cy="11.5" rx="11.5" ry="11.5"/>
<ellipse id="ellipse6" fill="#AB9483" cx="11.5" cy="11.5" rx="10.5" ry="10.5"/>
<g id="g8" transform="translate(4,4)">
	<path id="path11774" fill="#FFFFFF" d="M3.5,0l-1,5.5c-0.1,0.8,1.8,1.2,1.8,2L4,14c0,1,1,1,1,1s1,0,1-1L5.8,7.5
		c0-0.8,1.7-1.2,1.8-2L6.5,0H6l0.2,4L5.5,4.5L5.2,0H4.8L4.5,4.5L3.8,4L4,0H3.5z M12,0c-0.7,0-2,0.7-2.5,1.6C9.1,2.4,9,4,9,5v2.5
		c0,0.8,1.1,1,1.5,1L10,14c-0.1,1,1,1,1,1s1,0,1-1V0z"/>
</g>
</svg>
